X: 1
T: Maid of Feakle
M: 4/4
L: 1/8
D: Martin Hayes, Under the Moon
K: G
^c|d2 BG ABGE|DGAB B-cBA|{^c}d2 BG ABGE|DGBG A3 ^c|
d2 BG ABGE|DGAB B-cBA|GABd eg{a}ge|dBGB A3 A||
Bd d/d/B c2 cA|BddB ABGA|BddB c2 c^c|dBGB ABGA|
BddB c2 cA|BddB ABGA|Bd d/d/d edBd|eaag abge||

